public/images/icons/speech-bubbles.svg

<svg width="32" height="32" viewBox="0 0 32 32" fill="none" xmlns="http://www.w3.org/2000/svg">
<g clip-path="url(#clip0_16593_940)">
<path d="M22 30.603C16.891 30.603 12.75 26.83 12.75 22.176C12.75 17.523 16.891 13.75 22 13.75C27.109 13.75 31.25 17.523 31.25 22.176C31.25 24.04 30.586 25.763 29.461 27.158C29.741 28.634 30.457 30.646 31.25 31.25C31.25 31.25 28.515 30.871 26.46 29.56C25.0751 30.2511 23.5477 30.6076 22 30.603Z" stroke="#9394A0" stroke-width="1.5" stroke-linecap="round" stroke-linejoin="round"/>
<path fill-rule="evenodd" clip-rule="evenodd" d="M14.55 27.172C13.419 25.774 12.75 24.047 12.75 22.176C12.75 17.523 16.891 13.75 22 13.75C25.67 13.75 28.84 15.697 30.335 18.518C30.927 17.106 31.25 15.581 31.25 13.991C31.25 6.678 24.422 0.75 16 0.75C7.578 0.75 0.75 6.678 0.75 13.99C0.75 16.92 1.845 19.626 3.7 21.819C3.238 24.138 2.057 27.3 0.75 28.249C0.75 28.249 5.261 27.654 8.65 25.595C10.5042 26.4756 12.5037 27.01 14.55 27.172Z" fill="#9394A0" fill-opacity="0.15"/>
<path d="M14.55 27.172L14.49 27.92C14.6364 27.9318 14.783 27.9005 14.9117 27.8297C15.0404 27.759 15.1455 27.6521 15.214 27.5221C15.2825 27.3922 15.3113 27.2451 15.2969 27.0989C15.2825 26.9528 15.2255 26.8141 15.133 26.7L14.55 27.172ZM30.335 18.518L29.672 18.869C29.7383 18.9947 29.839 19.099 29.9623 19.1697C30.0856 19.2404 30.2265 19.2746 30.3685 19.2683C30.5105 19.262 30.6478 19.2155 30.7644 19.1342C30.881 19.0529 30.972 18.9401 31.027 18.809L30.335 18.518ZM3.7 21.818L4.436 21.965C4.45789 21.8545 4.45461 21.7405 4.42639 21.6314C4.39817 21.5223 4.34574 21.421 4.273 21.335L3.7 21.818ZM0.75 28.25L0.31 27.643C0.175357 27.7411 0.0771953 27.8812 0.0309988 28.0412C-0.0151977 28.2013 -0.00680011 28.3721 0.054867 28.5269C0.116534 28.6816 0.227961 28.8114 0.371573 28.8958C0.515184 28.9802 0.682806 29.0144 0.848 28.993L0.75 28.25ZM8.65 25.595L8.973 24.918C8.86052 24.8643 8.73643 24.8394 8.61194 24.8457C8.48745 24.852 8.36649 24.8892 8.26 24.954L8.65 25.595ZM15.133 26.7C14.102 25.425 13.5 23.863 13.5 22.176H12C12 24.231 12.736 26.123 13.967 27.644L15.133 26.7ZM13.5 22.176C13.5 18.001 17.238 14.5 22 14.5V13C16.544 13 12 17.044 12 22.176H13.5ZM22 14.5C25.408 14.5 28.315 16.307 29.672 18.87L30.998 18.167C29.366 15.087 25.93 13 22 13V14.5ZM31.027 18.809C31.6689 17.2842 31.9997 15.6454 32 13.991H30.5C30.4995 15.4463 30.2081 16.8869 29.643 18.228L31.027 18.809ZM32 13.991C32 6.168 24.734 0 16 0V1.5C24.111 1.5 30.5 7.188 30.5 13.99H32V13.991ZM16 0C7.266 0 0 6.168 0 13.99H1.5C1.5 7.189 7.889 1.5 16 1.5V0ZM0 13.99C0 17.113 1.169 19.988 3.127 22.303L4.272 21.334C2.522 19.264 1.5 16.726 1.5 13.991H0V13.99ZM2.964 21.672C2.71399 22.8994 2.3418 24.0987 1.853 25.252C1.34 26.438 0.785 27.296 0.309 27.641L1.191 28.856C2.022 28.252 2.71 27.054 3.231 25.843C3.769 24.593 4.194 23.172 4.435 21.964L2.964 21.671V21.672ZM0.75 28.25L0.848 28.993H0.854L0.865 28.991C0.932047 28.9813 0.999047 28.9713 1.066 28.961C1.92496 28.8205 2.77689 28.64 3.619 28.42C5.203 28.005 7.256 27.319 9.039 26.235L8.259 24.954C6.654 25.93 4.758 26.571 3.239 26.969C2.446 27.1762 1.6438 27.3463 0.835 27.479C0.777066 27.4881 0.719065 27.4968 0.661 27.505L0.653 27.506L0.75 28.25ZM8.326 26.271C10.2628 27.1914 12.3524 27.7503 14.49 27.92L14.612 26.425C12.6562 26.2703 10.7452 25.7596 8.973 24.918L8.326 26.271Z" fill="#9394A0"/>
</g>
<defs>
<clipPath id="clip0_16593_940">
<rect width="32" height="32" fill="white"/>
</clipPath>
</defs>
</svg>

<svg xmlns="http://www.w3.org/2000/svg" width="32" height="32" fill="none"><g clip-path="url(#a)"><path stroke="#9394a0" stroke-linecap="round" stroke-linejoin="round" stroke-width="1.5" d="M22 30.603c-5.109 0-9.25-3.773-9.25-8.427 0-4.653 4.141-8.426 9.25-8.426s9.25 3.773 9.25 8.426c0 1.864-.664 3.587-1.789 4.982.28 1.476.996 3.488 1.789 4.092 0 0-2.735-.379-4.79-1.69A9.9 9.9 0 0 1 22 30.603"/><path fill="#9394a0" fill-opacity=".15" fill-rule="evenodd" d="M14.55 27.172c-1.131-1.398-1.8-3.125-1.8-4.996 0-4.653 4.141-8.426 9.25-8.426 3.67 0 6.84 1.947 8.335 4.768.592-1.412.915-2.937.915-4.527C31.25 6.678 24.422.75 16 .75S.75 6.678.75 13.99c0 2.93 1.095 5.636 2.95 7.829-.462 2.319-1.643 5.481-2.95 6.43 0 0 4.511-.595 7.9-2.654a16.9 16.9 0 0 0 5.9 1.577" clip-rule="evenodd"/><path fill="#9394a0" d="m14.55 27.172-.06.748a.75.75 0 0 0 .643-1.22zm15.785-8.654-.663.351a.75.75 0 0 0 1.355-.06zM3.7 21.818l.736.147a.75.75 0 0 0-.163-.63zM.75 28.25l-.44-.607a.75.75 0 0 0 .538 1.35zm7.9-2.655.323-.677a.75.75 0 0 0-.713.036zm6.483 1.105c-1.031-1.275-1.633-2.837-1.633-4.524H12c0 2.055.736 3.947 1.967 5.468zM13.5 22.176c0-4.175 3.738-7.676 8.5-7.676V13c-5.456 0-10 4.044-10 9.176zM22 14.5c3.408 0 6.315 1.807 7.672 4.37l1.326-.703C29.366 15.087 25.93 13 22 13zm9.027 4.309c.642-1.525.973-3.164.973-4.818h-1.5c0 1.455-.292 2.896-.857 4.237zM32 13.991C32 6.168 24.734 0 16 0v1.5c8.111 0 14.5 5.688 14.5 12.49zM16 0C7.266 0 0 6.168 0 13.99h1.5C1.5 7.189 7.889 1.5 16 1.5zM0 13.99c0 3.123 1.169 5.998 3.127 8.313l1.145-.969c-1.75-2.07-2.772-4.608-2.772-7.343zm2.964 7.682a19 19 0 0 1-1.111 3.58C1.34 26.438.785 27.296.309 27.641l.882 1.215c.831-.604 1.519-1.802 2.04-3.013.538-1.25.963-2.671 1.204-3.879l-1.471-.293zM.75 28.25l.098.743h.006l.011-.002.201-.03a28 28 0 0 0 2.553-.541c1.584-.415 3.637-1.101 5.42-2.185l-.78-1.281c-1.605.976-3.501 1.617-5.02 2.015a27 27 0 0 1-2.578.536l-.008.001zm7.576-1.979a17.6 17.6 0 0 0 6.164 1.649l.122-1.495a16.1 16.1 0 0 1-5.639-1.507z"/></g><defs><clipPath id="a"><path fill="#fff" d="M0 0h32v32H0z"/></clipPath></defs></svg>
